X: 132
M: 6/8
L: 1/8
K: Amix
V: 1
dfd cac | BGB d2 :|
|: (f/^g/ |\
a)cA ecA | acA ef^g |\
acA ecA | BGB d2(f/^g/ |\
a)cA ecA | a^gf edc |\
dfd cac | BGB d2 :|
V: 2 clef=bass middle=d
z |\
a3 a3 | a3 a3 |\
a3 a3 | g3 g3 |\
a3 a3 | a3 a3 |\
a3 a3 |
g3 g2 :|\
|: z |\
a3 a3 | a3 a3 |\
a3 a3 | g3 g3 |\
a3 a3 | a3 a3 |\
a3 a3 | g3 g2 :|

